!!!COM: Palestrina, Giovanni Perluigi da
!!!OPR: Missa O virgo simul et mater
!!!OMD: Credo
!!!OTL: First Section
**kern	**kern	**kern	**kern	**kern
*Ibass	*Itenor	*Icalto	*Icalto	*Icant
!Bassus	!Tenor	!Altus 2	!Altus 1	!Cantus
*clefF4	*clefGv2	*clefG2	*clefG2	*clefG2
*k[b-]	*k[b-]	*k[b-]	*k[b-]	*k[b-]
*G:dor	*G:dor	*G:dor	*G:dor	*G:dor
*M4/2	*M4/2	*M4/2	*M4/2	*M4/2
=1	=1	=1	=1	=1
0D	1d	0a	2.f	0r
.	.	.	4e	.
.	1f	.	1d	.
=2	=2	=2	=2	=2
1.A	1e	1.a	1c	0r
.	1c	.	1e	.
2c	.	2g	.	.
=3	=3	=3	=3	=3
2B-	2d	1.b-	2f	0r
2G	2.e	.	2g	.
1B-	.	.	2f	.
.	4d	.	.	.
.	[2d	2g	4e	.
.	.	.	4d	.
=4	=4	=4	=4	=4
1A	2d]	1a	1e	0r
.	2c#	.	.	.
2r	2d	1a	2f#	.
2d	2f#	.	2a	.
=5	=5	=5	=5	=5
2G	2g	0r	2b	1dd
2G	2g	.	2b	.
1c	1g	.	2cc	2ee
.	.	.	2g	2ee
=6	=6	=6	=6	=6
1F	1f	2r	2.a	2ff
.	.	2a	.	2cc
.	.	.	4g	.
1r	1d	2.a	4f	1dd
.	.	.	4e	.
.	.	.	[2f	.
.	.	4g	.	.
=7	=7	=7	=7	=7
0r	2d	2f	2f]	0a
.	2e	2e	2c	.
.	2f	2d	2d	.
.	2c	2A	2e	.
=8	=8	=8	=8	=8
2r	1d	4d	1f	2.a
.	.	4e	.	.
2d	.	4f	.	.
.	.	4g	.	4b-
2e	1A	2.a	1e	4cc
.	.	.	.	4dd
2e	.	.	.	4ee
.	.	4g	.	4cc
=9	=9	=9	=9	=9
2f	2.a	2f	2d	2dd
2c	.	2e	2A	2.ee
.	4g	.	.	.
1d	2.f	4f	1a	.
.	.	4g	.	4dd
.	.	[2a	.	[2dd
.	8e	.	.	.
.	8d	.	.	.
=10	=10	=10	=10	=10
1A	1e	4a]	1a	2dd]
.	.	4g	.	.
.	.	2e	.	2cc#
2D	1d	4f	2a	[1dd
.	.	4e	.	.
2G	.	4d	2b-	.
.	.	4c	.	.
=11	=11	=11	=11	=11
2G	1r	2.B-	2b-	0dd]
2.G	.	.	2.b-	.
.	.	4c	.	.
.	2r	4d	.	.
4G	.	4e	4b-	.
2F	2d	[2f	2a	.
=12	=12	=12	=12	=12
2B-	2d	2f]	2f	0r
2B-	2.d	4e	2g	.
.	.	4d	.	.
1A	.	2e	1a	.
.	4d	.	.	.
.	2c	2a	.	.
=13	=13	=13	=13	=13
1D	0f	2a	0r	2r
.	.	2.a	.	2dd
1D	.	.	.	2dd
.	.	4a	.	.
.	.	2f	.	[2dd
=14	=14	=14	=14	=14
2G	1e	2b-	1r	4dd]
.	.	.	.	4dd
2A	.	2a	.	2cc
4D	1d	2a	2r	1ff
4E	.	.	.	.
4F	.	[2d	2a	.
4G	.	.	.	.
=15	=15	=15	=15	=15
1A	1r	2d]	2a	1ee
.	.	2c	1a	.
1D	2r	4f	.	1dd
.	.	4g	.	.
.	2d	4a	2f	.
.	.	4f	.	.
=16	=16	=16	=16	=16
1G	2d	1g	1b-	2r
.	1d	.	.	2dd
1r	.	1f	2a	2dd
.	2B-	.	[2b-	[2dd
=17	=17	=17	=17	=17
0r	2.e-	2.g	4b-]	2dd]
.	.	.	4a	.
.	.	.	2.g	2cc
.	4e-	4g	.	.
.	1d	1a	.	2dd
.	.	.	4f#	.
.	.	.	4f#	2dd
.	.	.	8e	.
.	.	.	8f#	.
=18	=18	=18	=18	=18
2r	1G	2r	0g	4b-
.	.	.	.	4cc
1B-	.	1d	.	4dd
.	.	.	.	4ee-
.	1r	.	.	2dd
2c	.	2e	.	4cc
.	.	.	.	4b-
=19	=19	=19	=19	=19
2d	0r	2f	0r	2a
2B-	.	2d	.	1b-
2e-	.	1g	.	.
2e-	.	.	.	2cc
=20	=20	=20	=20	=20
1d	2r	2a	1f	1dd
.	1B-	1b-	.	.
1r	.	.	2g	2b-
.	2c	4a	[2a	2ee-
.	.	4g	.	.
=21	=21	=21	=21	=21
0r	2d	1f	4a]	2dd
.	.	.	4f	.
.	2B-	.	1b-	2.dd
.	2e-	1g	.	.
.	.	.	.	8cc
.	.	.	.	8b-
.	2e-	.	2g	2cc
=22	=22	=22	=22	=22
1r	1d	1a	1f#	0dd
1G	1B-	[1b-	2g	.
.	.	.	2g	.
=23	=23	=23	=23	=23
0B-	0d	2b-]	2.f	0b-
.	.	4a	.	.
.	.	4g	4e-	.
.	.	1f	4d	.
.	.	.	4B-	.
.	.	.	[2b-	.
=24	=24	=24	=24	=24
0F	0c	0f	2b-]	0cc
.	.	.	4a	.
.	.	.	4g	.
.	.	.	1a	.
=25	=25	=25	=25	=25
2BB-	1B-	2f	2b-	2dd
2.B-	.	2d	2.f	2.dd
.	1r	2B-	.	.
4B-	.	.	4f	4dd
2A	.	2c	2f	2cc
=26	=26	=26	=26	=26
2G	0r	1d	2g	2b-
2F#	.	.	2a	2a
2G	.	[1d	2b-	2g
2d	.	.	2a	2f#
=27	=27	=27	=27	=27
1.G	1r	1d]	2b-	2g
.	.	.	2b-	2g
.	2r	2r	1g	4b-
.	.	.	.	4cc
2G	[2g	[2b-	.	4dd
.	.	.	.	4ee-
=28	=28	=28	=28	=28
1D	4g]	4b-]	0r	1dd
.	4g	4b-	.	.
.	2f	2a	.	.
1r	2e-	2g	.	2cc
.	2d	2f	.	2dd
=29	=29	=29	=29	=29
0r	2c	2g	0r	2ee-
.	2B-	2b-	.	2dd
.	2c	4a	.	4cc
.	.	4g	.	4b-
.	2e-	[2g	.	4a
.	.	.	.	4g
=30	=30	=30	=30	=30
1r	0d	2g]	1r	0a
.	.	4f	.	.
.	.	4e	.	.
2r	.	[1f	2r	.
[2d	.	.	[2a	.
=31	=31	=31	=31	=31
2d]	1r	2f]	2a]	0r
2d	.	4e	2b	.
.	.	4d	.	.
[1c	2r	[1e	1cc	.
.	[2g	.	.	.
=32	=32	=32	=32	=32
2c]	2g]	2e]	2g	2r
2G	2g	2d	2.b-	1dd
1B-	[1f	1d	.	.
.	.	.	4a	.
.	.	.	4f	2dd
.	.	.	4g	.
=33	=33	=33	=33	=33
2.A	2f]	1r	1a	1.cc
.	2c	.	.	.
4B-	.	.	.	.
1c	1e-	2r	1g	.
.	.	[2g	.	2g
=34	=34	=34	=34	=34
1G	1d	2g]	2r	1b-
.	.	2g	2.d	.
1r	1r	[1f	.	2.a
.	.	.	4c	.
.	.	.	4d	.
.	.	.	4e	4g
=35	=35	=35	=35	=35
0r	0r	2f]	4f	4a
.	.	.	4g	4b-
.	.	2c	2.a	2.cc
.	.	1e-	.	.
.	.	.	4g	4b-
.	.	.	[2g	4b-
.	.	.	.	8a
.	.	.	.	8g
=36	=36	=36	=36	=36
2r	2r	1d	2g]	0a
2d	2d	.	2f	.
2c#	2e	2r	2r	.
2d	2f	2a	[2d	.
=37	=37	=37	=37	=37
2G	2g	2b-	2d]	0r
2A	1f	2a	2c	.
2B-	.	2f	1d	.
2B-	4e	2g	.	.
.	4d	.	.	.
=38	=38	=38	=38	=38
0A	2c#	1.a	2e	0r
.	1d	.	2f	.
.	.	.	2.e	.
.	2c#	2a	.	.
.	.	.	4e	.
=39	=39	=39	=39	=39
2r	1d	2a	2f	2r
2G	.	2d	2b-	2g
2F#	1r	2d	2a	2a
2G	.	2d	2g	2b-
=40	=40	=40	=40	=40
1C	2r	1e-	2g	1cc
.	1g	.	2c	.
1D	.	2d	1r	1a
.	2f#	2a	.	.
=41	=41	=41	=41	=41
0r	1g	1b-	2r	1dd
.	.	.	1g	.
.	2c	2cc	.	2ee-
.	2d	[2b-	2f	2dd
=42	=42	=42	=42	=42
1r	1e-	4b-]	1g	2b-
.	.	4a	.	.
.	.	1g	.	2cc
2r	1d	.	2a	1dd
[2d	.	4f	2b-	.
.	.	4e	.	.
=43	=43	=43	=43	=43
2d]	1r	2f	0a	0r
2c	.	2e	.	.
1d	2r	2f	.	.
.	[2d	2f	.	.
=44	=44	=44	=44	=44
2G	2d]	2g	2r	1r
2A	2c	1f	1a	.
2B-	2d	.	.	2r
2B-	2G	4e	2g	[2dd
.	.	4d	.	.
=45	=45	=45	=45	=45
1A	2r	1e	1.a	2dd]
.	2A	.	.	2cc
1D	2A	2f	.	1dd
.	2B-	[2f	2d	.
=46	=46	=46	=46	=46
0r	1c	2f]	1e	2g
.	.	1e	.	2a
.	1G	.	2.g	2b-
.	.	[2d	.	2b-
.	.	.	4f	.
=47	=47	=47	=47	=47
1r	0A	2d]	1e	1a
.	.	2c#	.	.
[1D	.	2d	2f#	1a
.	.	[2f#	[2a	.
=48	=48	=48	=48	=48
2D]	0r	2f#]	2a]	2r
2D	.	2f#	2a	1dd
2D	.	2f#	2a	.
2D	.	2f#	2a	2dd
=49	=49	=49	=49	=49
1G	0r	1g	1b-	2dd
.	.	.	.	2dd
2.F	.	[1c	2a	1ff
.	.	.	2f	.
8E	.	.	.	.
8D	.	.	.	.
=50	=50	=50	=50	=50
1C	1r	1c]	2g	2ee
.	.	.	2a	2cc
1r	2r	1r	2b-	2dd
.	2c	.	2cc	2ee
=51	=51	=51	=51	=51
0r	2d	2r	2a	2ff
.	2e	2g	1cc	2gg
.	2f	2a	.	2ff
.	2g	2b-	2b-	4ee-
.	.	.	.	4dd
=52	=52	=52	=52	=52
1r	1c	2cc	2a	1ee-
.	.	2cc	2g	.
2r	4d	2a	1f	1dd
.	4e	.	.	.
[2B-	[2f	2b-	.	.
=53	=53	=53	=53	=53
2B-]	4f]	1g	1r	2dd
.	8e	.	.	.
.	8d	.	.	.
2c	2e	.	.	4cc
.	.	.	.	4b-
2d	1f	1r	2r	2a
2B-	.	.	2f	[2b-
=54	=54	=54	=54	=54
1e-	1r	1r	1g	2b-]
.	.	.	.	2cc
2.d	2r	2r	1a	1dd
.	[2B-	2f	.	.
4c	.	.	.	.
=55	=55	=55	=55	=55
2B-	2B-]	2g	2d	2dd
2A	2c	2a	2e	2cc
1G	2d	2d	2g	4b-
.	.	.	.	4cc
.	2B-	2d	2g	4dd
.	.	.	.	4b-
=56	=56	=56	=56	=56
1E-	1e-	1g	1G	4cc
.	.	.	.	4b-
.	.	.	.	1b-
1F	2c	1f	1r	.
.	2c	.	.	2a
=57	=57	=57	=57	=57
2r	2B-	1d	1G	1b-
1G	1d	.	.	.
.	.	1r	2.g	1r
[2c	[2e	.	.	.
.	.	.	4f	.
=58	=58	=58	=58	=58
4c]	4e]	1r	2g	0r
4B-	4d	.	.	.
2c	2e	.	1a	.
2.d	2.f	2r	.	.
.	.	[2d	2a	.
4c	4e	.	.	.
=59	=59	=59	=59	=59
4B-	4d	2d]	2.b-	0r
4A	4c	.	.	.
4G	4B-	2.g	.	.
4A	4A	.	4cc	.
4B-	2G	.	2dd	.
4c	.	4f	.	.
[2d	2B-	2g	2d	.
=60	=60	=60	=60	=60
2d]	1A	2.a	2f	1r
2c#	.	.	2e	.
.	.	4a	.	.
1d	1r	1a	1f	2r
.	.	.	.	[2a
=61	=61	=61	=61	=61
0r	2r	1f	1d	2a]
.	2d	.	.	2.dd
.	2.g	2.b-	1r	.
.	.	.	.	4cc
.	.	.	.	2dd
.	4f	4a	.	.
=62	=62	=62	=62	=62
1r	2g	2b-	0r	1ee
.	2.a	2cc	.	.
1D	.	1a	.	4ff
.	4g	.	.	4ee
.	4f	.	.	4dd
.	4e	.	.	4cc
=63	=63	=63	=63	=63
2.G	2.d	2.g	1r	4b-
.	.	.	.	4cc
.	.	.	.	1dd
4F	4f	4a	.	.
2G	1e	2b-	2r	.
2A	.	[2a	2e	2cc#
=64	=64	=64	=64	=64
2F	1d	2a]	4f	0dd
.	.	.	4e	.
2.G	.	2g	4d	.
.	.	.	4c	.
.	1d	2g	4B-	.
4F	.	.	4c	.
2D	.	2f	[2d	.
=65	=65	=65	=65	=65
1E-	2.G	1g	2d]	1r
.	.	.	2c	.
.	4A	.	.	.
1D	4B-	2f	[1d	2r
.	8A	.	.	.
.	8G	.	.	.
.	2A	[2d	.	2dd
=66	=66	=66	=66	=66
1G	2G	2d]	1d]	2b-
.	1g	1B-	.	2g
1E-	.	.	1g	1b-
.	[2e-	2G	.	.
=67	=67	=67	=67	=67
1C	2e-]	1g	1e-	1cc
.	1c	.	.	.
1G	.	[1g	2d	[1dd
.	2B-	.	2d	.
=68	=68	=68	=68	=68
0D	0A	2g]	0d	2dd]
.	.	4f#	.	2a
.	.	4e	.	.
.	.	1f#	.	1dd
=69	=69	=69	=69	=69
1G	1G	1g	1d	1b
1r	1r	1r	1r	1r
=70	=70	=70	=70	=70
0F	0c	0a	0f	0cc
=71	=71	=71	=71	=71
1F	1c	1a	0f	1cc
1F	2c	1a	.	1cc
.	[2f	.	.	.
=72	=72	=72	=72	=72
1.B-	4f]	2b-	0f	1.dd
.	4e	.	.	.
.	4d	4B-	.	.
.	4c	4c	.	.
.	2B-	4d	.	.
.	.	4e	.	.
2A	2c	2f	.	2cc
=73	=73	=73	=73	=73
0G	1d	2.B-	1.g	2.b-
.	.	4c	.	4a
.	1r	4d	.	1b-
.	.	4e-	.	.
.	.	[2d	2f	.
=74	=74	=74	=74	=74
0A	1r	2d]	0e	1a
.	.	4c#	.	.
.	.	4B	.	.
.	1A	[1c#	.	1ee
=75	=75	=75	=75	=75
0r	2A	1c#]	2r	2ee
.	2A	.	2a	2ee
.	[1d	2r	4a	[1ff
.	.	.	4g	.
.	.	2a	4f	.
.	.	.	4e	.
=76	=76	=76	=76	=76
0r	2d]	2a	2d	2ff]
.	2c	2a	2e	2ee
.	1B-	[1b-	2f	1dd
.	.	.	[2g	.
=77	=77	=77	=77	=77
0r	0c	2b-]	2g]	0cc
.	.	2a	1f	.
.	.	1g	.	.
.	.	.	2e	.
=78	=78	=78	=78	=78
1.F	2r	2a	2f	2r
.	1A	1cc	1a	1ff
2F	2A	2cc	2a	2ff
=79	=79	=79	=79	=79
1F	1A	1.cc	1a	1ff
1C	1c	.	1g	1ee-
.	.	2g	.	.
=80	=80	=80	=80	=80
1G	2.B-	1.b-	1.g	1.dd
.	4c	.	.	.
1G	2d	.	.	.
.	2d	2b-	2g	2dd
=81	=81	=81	=81	=81
1D	1d	1a	2f#	0dd
.	.	.	2f#	.
1G	1d	1b-	1g	.
=82	=82	=82	=82	=82
1F#	1d	1a	1a	1r
1G	1d	[1g	1b	1dd
=83	=83	=83	=83	=83
1C	2.c	2g]	4cc	1ee-
.	.	.	4b-	.
.	.	1a	4a	.
.	4B-	.	4g	.
1D	4A	.	4f	1dd
.	4G	.	4e	.
.	2F	[2b-	2d	.
=84	=84	=84	=84	=84
0E-	2.B-	4b-]	1g	1b-
.	.	4a	.	.
.	.	4g	.	.
.	4A	4f	.	.
.	4G	[1g	1r	1cc
.	4F	.	.	.
.	2G	.	.	.
=85	=85	=85	=85	=85
0D	0A	2g]	1d	[0dd
.	.	4f#	.	.
.	.	4e	.	.
.	.	1f#	1d	.
=86	=86	=86	=86	=86
0G	0G	0g	0B	0dd]
*-	*-	*-	*-	*-
!!!CDT: 1525/^1526/-1594/2/2
!!!OCY: Italia
!!!AGN: Mass (Parody)
!!!AST: renaissance, vocal
!!!ASW: Motet 1572 (Palestrina)
!!!PWK: Masses, Book 10
!!!RNB: Cadence finals: D
!!!YOR: Le Opere Complete, v. 27, p. 89
!!!YOO: Rome, Italy: Fratelli Scalera
!!!END: 1992//
!!!EED: John Miller
!!!YEC: Copyright 2000, John Miller
!!!YEN: United States of America
!!!YEM: Rights to all derivative electronic formats reserved.
!!!YEM: Refer to licensing agreement for further details.
!!!YEM: This file must be accompanied by the licensing agreement.
!!!YEM: A copy of the licensing agreement may be found at http://www.music-cog.ohio-state.edu/HumdrumDatabases/Palestrina/license.txt
!!!EMD: converted to Humdrum by Bret Aarden
